Newaita-dark/apps/32/words.svg

<svg height="32" viewBox="0 0 32 32" width="32" xmlns="http://www.w3.org/2000/svg" xmlns:xlink="http://www.w3.org/1999/xlink"><linearGradient id="a" gradientTransform="matrix(.0744119 0 0 .062506 -2.630336 13.438785)" gradientUnits="userSpaceOnUse" x1="254" x2="254" y1="233.5" y2="254.666672"><stop offset="0" stop-opacity=".27451"/><stop offset="1" stop-opacity="0"/></linearGradient><linearGradient id="b"><stop offset="0" stop-opacity=".313726"/><stop offset=".222222" stop-opacity=".27451"/><stop offset="1" stop-opacity="0"/></linearGradient><radialGradient id="c" cx="450.908936" cy="189.579361" gradientTransform="matrix(.00000017 -.0781325 -.140638 -.0000001 50.476849 63.595333)" gradientUnits="userSpaceOnUse" r="21.166656" xlink:href="#b"/><radialGradient id="d" cx="450.908936" cy="189.579361" gradientTransform="matrix(-.00000017 .0781325 .140638 .0000001 -18.723815 -7.527479)" gradientUnits="userSpaceOnUse" r="21.166656" xlink:href="#b"/><radialGradient id="e" cx="450.908936" cy="189.579361" gradientTransform="matrix(-.00000017 -.0781325 .140638 -.0000001 -18.723815 63.595333)" gradientUnits="userSpaceOnUse" r="21.166656" xlink:href="#b"/><radialGradient id="f" cx="450.908936" cy="189.579361" gradientTransform="matrix(.00000017 .0781325 -.140638 .0000001 50.476847 -7.527479)" gradientUnits="userSpaceOnUse" r="21.166656" xlink:href="#b"/><linearGradient id="g" gradientUnits="userSpaceOnUse" x1="15.876524" x2="15.876524" y1="28.033934" y2="2.89610399997"><stop offset="0" stop-color="#e0e0e0"/><stop offset="1" stop-color="#eee"/></linearGradient><linearGradient id="h"><stop offset="0" stop-color="#81c784"/><stop offset="1" stop-color="#66bb6a"/></linearGradient><linearGradient id="i" gradientUnits="userSpaceOnUse" x1="25.85949596081" x2="25.85949596081" xlink:href="#h" y1="-16.23292089765" y2="8.9049081648"/><linearGradient id="j" gradientUnits="userSpaceOnUse" x1="17.19956825006" x2="17.19956825006" xlink:href="#h" y1="8.35365925002" y2="22.24561724997"/><path d="m7.609375 28.035156h16.535156v1.320313h-16.535156zm0 0" fill="url(#a)"/><path d="m24.144531 28.035156h2.648438v-1.324218h-2.648438zm0 0" fill="url(#c)"/><path d="m7.609375 28.035156h-2.648437v1.320313h2.648437zm0 0" fill="url(#d)"/><path d="m7.609375 28.035156h-2.648437v-1.324218h2.648437zm0 0" fill="url(#e)"/><path d="m24.144531 28.035156h2.648438v1.320313h-2.648438zm0 0" fill="url(#f)"/><path d="m19.90625 2.894531h-13.292969c-.730469 0-1.320312.589844-1.320312 1.324219v22.492188c0 .734374.589843 1.324218 1.320312 1.324218h18.523438c.734375 0 1.324219-.589844 1.324219-1.324218v-17.804688zm0 0" fill="url(#g)"/><path d="m19.90625 2.894531 6.554688 6.011719v-4.6875c0-.734375-.589844-1.324219-1.324219-1.324219zm0 0" fill="url(#i)"/><path d="m5.292969 26.378906v.332032c0 .734374.589843 1.324218 1.320312 1.324218h18.523438c.734375 0 1.324219-.589844 1.324219-1.324218v-.332032c0 .734375-.589844 1.324219-1.324219 1.324219h-18.523438c-.730469 0-1.320312-.589844-1.320312-1.324219zm0 0" fill-opacity=".235294"/><path d="m6.613281 2.894531c-.730469 0-1.320312.589844-1.320312 1.324219v.660156c0-.730468.589843-1.320312 1.320312-1.320312h13.292969l6.554688 6.007812v-.660156l-6.554688-6.011719zm0 0" fill="#fff"/><path d="m19.90625 2.894531.722656.664063h4.507813c.734375 0 1.324219.589844 1.324219 1.320312v-.660156c0-.734375-.589844-1.324219-1.324219-1.324219zm0 0" fill="#fff" fill-opacity=".392157"/><path d="m19.90625 2.894531 6.554688 6.011719v-.550781l-5.953126-5.460938zm0 0" fill-opacity=".235294"/><path d="m1203.664647 175.022665h-803.781553c-44.169013 0-79.8349 35.665888-79.8349 80.071098v1360.027676c0 44.405211 35.665887 80.071098 79.8349 80.071098h1120.05058c44.40521 0 80.071098-35.665887 80.071098-80.071098v-1076.590161zm0 0" fill="none" stroke="#212121" stroke-linecap="round" stroke-linejoin="round" stroke-width="11.338583" transform="scale(.016538)"/><path d="m318.469588-168.691922 104.864986 96.178315v-74.992838c0-11.748878-9.436599-21.185477-21.185477-21.185477zm0 0" fill="none" stroke="#212121" stroke-linecap="round" stroke-linejoin="round" stroke-width="3" transform="matrix(.062506 0 0 .062506 0 13.438783)"/><path d="m10.253906 11.332031 1.652344 9.921875h1.324219l1.984375-8.929687 1.984375 8.929687h1.324219c2.316406-3.96875 2.976562-8.269531 2.976562-11.578125l-1.984375.332031c0 2.976563-.042969 6.609376-1.324219 9.589844l-1.984375-9.257812-1.324219.328125-1.984374 8.929687-1.652344-7.9375.992187-1.320312zm0 0" fill="url(#j)"/><path d="m21.5 9.757812-1.984375.332032c0 2.976562-.042969 6.609375-1.324219 9.59375l-1.984375-9.261719-1.324219.328125-1.984374 8.933594-1.597657-7.679688-.054687.070313 1.652344 7.9375 1.984374-8.929688 1.324219-.332031 1.984375 9.261719c1.28125-2.980469 1.324219-6.613281 1.324219-9.589844l1.980469-.332031c.003906-.109375.003906-.222656.003906-.332032zm-9.261719.664063-1.984375.992187.050782.304688 1.535156-.769531zm0 0" fill="#fff" fill-opacity=".470588"/><path d="m21.5 10.339844h-.007812c-.085938 3.207031-.804688 7.203125-2.96875 10.914062h-1.324219l-1.984375-8.929687-1.984375 8.929687h-1.324219l-1.550781-9.3125-.101563.050782 1.652344 9.921874h1.324219l1.984375-8.929687 1.984375 8.929687h1.324219c2.316406-3.96875 2.976562-8.269531 2.976562-11.574218zm-9.261719.660156-.792969.398438-.199218.261718.109375.519532zm0 0" fill-opacity=".235294"/><path d="m164.046834-33.704813 26.434976 158.734842h21.185477l31.746968-142.861358 31.746968 142.861358h21.185477c37.058961-63.493937 47.620453-132.299866 47.620453-185.232311l-31.746969 5.311992c0 47.620453-.687434 105.739903-21.185476 153.422849l-31.746969-148.110856-21.185477 5.249499-31.746968 142.861357-26.434976-126.987873 15.873485-21.122983zm0 0" fill="none" stroke="#212121" stroke-linecap="round" stroke-linejoin="round" stroke-width="3" transform="matrix(.062506 0 0 .062506 0 13.438783)"/></svg>

<?xml version="1.0" encoding="UTF-8"?>
<svg xmlns="http://www.w3.org/2000/svg" xmlns:xlink="http://www.w3.org/1999/xlink" width="32px" height="32px" viewBox="0 0 32 32" version="1.1">
<defs>
<linearGradient id="linear0" gradientUnits="userSpaceOnUse" x1="254" y1="233.5" x2="254" y2="254.666672" gradientTransform="matrix(0.0744119,0,0,0.062506,-2.630336,13.438785)">
<stop offset="0" style="stop-color:rgb(0%,0%,0%);stop-opacity:0.27451;"/>
<stop offset="1" style="stop-color:rgb(0%,0%,0%);stop-opacity:0;"/>
</linearGradient>
<radialGradient id="radial0" gradientUnits="userSpaceOnUse" cx="450.908936" cy="189.579361" fx="450.908936" fy="189.579361" r="21.166656" gradientTransform="matrix(0.00000017417,-0.0781325,-0.140638,-0.000000101539,50.476849,63.595333)">
<stop offset="0" style="stop-color:rgb(0%,0%,0%);stop-opacity:0.313726;"/>
<stop offset="0.222222" style="stop-color:rgb(0%,0%,0%);stop-opacity:0.27451;"/>
<stop offset="1" style="stop-color:rgb(0%,0%,0%);stop-opacity:0;"/>
</radialGradient>
<radialGradient id="radial1" gradientUnits="userSpaceOnUse" cx="450.908936" cy="189.579361" fx="450.908936" fy="189.579361" r="21.166656" gradientTransform="matrix(-0.00000017417,0.0781325,0.140638,0.000000101539,-18.723815,-7.527479)">
<stop offset="0" style="stop-color:rgb(0%,0%,0%);stop-opacity:0.313726;"/>
<stop offset="0.222222" style="stop-color:rgb(0%,0%,0%);stop-opacity:0.27451;"/>
<stop offset="1" style="stop-color:rgb(0%,0%,0%);stop-opacity:0;"/>
</radialGradient>
<radialGradient id="radial2" gradientUnits="userSpaceOnUse" cx="450.908936" cy="189.579361" fx="450.908936" fy="189.579361" r="21.166656" gradientTransform="matrix(-0.00000017417,-0.0781325,0.140638,-0.000000101539,-18.723815,63.595333)">
<stop offset="0" style="stop-color:rgb(0%,0%,0%);stop-opacity:0.313726;"/>
<stop offset="0.222222" style="stop-color:rgb(0%,0%,0%);stop-opacity:0.27451;"/>
<stop offset="1" style="stop-color:rgb(0%,0%,0%);stop-opacity:0;"/>
</radialGradient>
<radialGradient id="radial3" gradientUnits="userSpaceOnUse" cx="450.908936" cy="189.579361" fx="450.908936" fy="189.579361" r="21.166656" gradientTransform="matrix(0.00000017417,0.0781325,-0.140638,0.000000101539,50.476847,-7.527479)">
<stop offset="0" style="stop-color:rgb(0%,0%,0%);stop-opacity:0.313726;"/>
<stop offset="0.222222" style="stop-color:rgb(0%,0%,0%);stop-opacity:0.27451;"/>
<stop offset="1" style="stop-color:rgb(0%,0%,0%);stop-opacity:0;"/>
</radialGradient>
<linearGradient id="linear1" gradientUnits="userSpaceOnUse" x1="254" y1="233.5" x2="254" y2="-168.666672" gradientTransform="matrix(0.062506,0,0,0.062506,0,13.438783)">
<stop offset="0" style="stop-color:rgb(87.843138%,87.843138%,87.843138%);stop-opacity:1;"/>
<stop offset="1" style="stop-color:rgb(93.333334%,93.333334%,93.333334%);stop-opacity:1;"/>
</linearGradient>
<linearGradient id="linear2" gradientUnits="userSpaceOnUse" x1="413.712219" y1="-474.701691" x2="413.712219" y2="-72.535034" gradientTransform="matrix(0.062506,0,0,0.062506,0,13.438783)">
<stop offset="0" style="stop-color:rgb(50.588238%,78.039217%,51.764709%);stop-opacity:1;"/>
<stop offset="1" style="stop-color:rgb(40.000001%,73.333335%,41.568628%);stop-opacity:1;"/>
</linearGradient>
<linearGradient id="linear3" gradientUnits="userSpaceOnUse" x1="280.458344" y1="-89.291664" x2="280.458344" y2="132.958328" gradientTransform="matrix(0.062506,0,0,0.062506,-0.330761,13.934924)">
<stop offset="0" style="stop-color:rgb(50.588238%,78.039217%,51.764709%);stop-opacity:1;"/>
<stop offset="1" style="stop-color:rgb(40.000001%,73.333335%,41.568628%);stop-opacity:1;"/>
</linearGradient>
</defs>
<g id="surface1">
<path style=" stroke:none;fill-rule:nonzero;fill:url(#linear0);" d="M 7.609375 28.035156 L 24.144531 28.035156 L 24.144531 29.355469 L 7.609375 29.355469 Z M 7.609375 28.035156 "/>
<path style=" stroke:none;fill-rule:nonzero;fill:url(#radial0);" d="M 24.144531 28.035156 L 26.792969 28.035156 L 26.792969 26.710938 L 24.144531 26.710938 Z M 24.144531 28.035156 "/>
<path style=" stroke:none;fill-rule:nonzero;fill:url(#radial1);" d="M 7.609375 28.035156 L 4.960938 28.035156 L 4.960938 29.355469 L 7.609375 29.355469 Z M 7.609375 28.035156 "/>
<path style=" stroke:none;fill-rule:nonzero;fill:url(#radial2);" d="M 7.609375 28.035156 L 4.960938 28.035156 L 4.960938 26.710938 L 7.609375 26.710938 Z M 7.609375 28.035156 "/>
<path style=" stroke:none;fill-rule:nonzero;fill:url(#radial3);" d="M 24.144531 28.035156 L 26.792969 28.035156 L 26.792969 29.355469 L 24.144531 29.355469 Z M 24.144531 28.035156 "/>
<path style=" stroke:none;fill-rule:nonzero;fill:url(#linear1);" d="M 19.90625 2.894531 L 6.613281 2.894531 C 5.882812 2.894531 5.292969 3.484375 5.292969 4.21875 L 5.292969 26.710938 C 5.292969 27.445312 5.882812 28.035156 6.613281 28.035156 L 25.136719 28.035156 C 25.871094 28.035156 26.460938 27.445312 26.460938 26.710938 L 26.460938 8.90625 Z M 19.90625 2.894531 "/>
<path style=" stroke:none;fill-rule:nonzero;fill:url(#linear2);" d="M 19.90625 2.894531 L 26.460938 8.90625 L 26.460938 4.21875 C 26.460938 3.484375 25.871094 2.894531 25.136719 2.894531 Z M 19.90625 2.894531 "/>
<path style=" stroke:none;fill-rule:nonzero;fill:rgb(0%,0%,0%);fill-opacity:0.235294;" d="M 5.292969 26.378906 L 5.292969 26.710938 C 5.292969 27.445312 5.882812 28.035156 6.613281 28.035156 L 25.136719 28.035156 C 25.871094 28.035156 26.460938 27.445312 26.460938 26.710938 L 26.460938 26.378906 C 26.460938 27.113281 25.871094 27.703125 25.136719 27.703125 L 6.613281 27.703125 C 5.882812 27.703125 5.292969 27.113281 5.292969 26.378906 Z M 5.292969 26.378906 "/>
<path style=" stroke:none;fill-rule:nonzero;fill:rgb(100%,100%,100%);fill-opacity:1;" d="M 6.613281 2.894531 C 5.882812 2.894531 5.292969 3.484375 5.292969 4.21875 L 5.292969 4.878906 C 5.292969 4.148438 5.882812 3.558594 6.613281 3.558594 L 19.90625 3.558594 L 26.460938 9.566406 L 26.460938 8.90625 L 19.90625 2.894531 Z M 6.613281 2.894531 "/>
<path style=" stroke:none;fill-rule:nonzero;fill:rgb(100%,100%,100%);fill-opacity:0.392157;" d="M 19.90625 2.894531 L 20.628906 3.558594 L 25.136719 3.558594 C 25.871094 3.558594 26.460938 4.148438 26.460938 4.878906 L 26.460938 4.21875 C 26.460938 3.484375 25.871094 2.894531 25.136719 2.894531 Z M 19.90625 2.894531 "/>
<path style=" stroke:none;fill-rule:nonzero;fill:rgb(0%,0%,0%);fill-opacity:0.235294;" d="M 19.90625 2.894531 L 26.460938 8.90625 L 26.460938 8.355469 L 20.507812 2.894531 Z M 19.90625 2.894531 "/>
<path style="fill:none;stroke-width:11.338583;stroke-linecap:round;stroke-linejoin:round;stroke:rgb(12.941177%,12.941177%,12.941177%);stroke-opacity:1;stroke-miterlimit:4;" d="M 1203.664647 175.022665 L 399.883094 175.022665 C 355.714081 175.022665 320.048194 210.688553 320.048194 255.093763 L 320.048194 1615.121439 C 320.048194 1659.52665 355.714081 1695.192537 399.883094 1695.192537 L 1519.933674 1695.192537 C 1564.338884 1695.192537 1600.004772 1659.52665 1600.004772 1615.121439 L 1600.004772 538.531278 Z M 1203.664647 175.022665 " transform="matrix(0.016538,0,0,0.016538,0,0)"/>
<path style="fill:none;stroke-width:3;stroke-linecap:round;stroke-linejoin:round;stroke:rgb(12.941177%,12.941177%,12.941177%);stroke-opacity:1;stroke-miterlimit:4;" d="M 318.469588 -168.691922 L 423.334574 -72.513607 L 423.334574 -147.506445 C 423.334574 -159.255323 413.897975 -168.691922 402.149097 -168.691922 Z M 318.469588 -168.691922 " transform="matrix(0.062506,0,0,0.062506,0,13.438783)"/>
<path style=" stroke:none;fill-rule:nonzero;fill:url(#linear3);" d="M 10.253906 11.332031 L 11.90625 21.253906 L 13.230469 21.253906 L 15.214844 12.324219 L 17.199219 21.253906 L 18.523438 21.253906 C 20.839844 17.285156 21.5 12.984375 21.5 9.675781 L 19.515625 10.007812 C 19.515625 12.984375 19.472656 16.617188 18.191406 19.597656 L 16.207031 10.339844 L 14.882812 10.667969 L 12.898438 19.597656 L 11.246094 11.660156 L 12.238281 10.339844 Z M 10.253906 11.332031 "/>
<path style=" stroke:none;fill-rule:nonzero;fill:rgb(100%,100%,100%);fill-opacity:0.470588;" d="M 21.5 9.757812 L 19.515625 10.089844 C 19.515625 13.066406 19.472656 16.699219 18.191406 19.683594 L 16.207031 10.421875 L 14.882812 10.75 L 12.898438 19.683594 L 11.300781 12.003906 L 11.246094 12.074219 L 12.898438 20.011719 L 14.882812 11.082031 L 16.207031 10.75 L 18.191406 20.011719 C 19.472656 17.03125 19.515625 13.398438 19.515625 10.421875 L 21.496094 10.089844 C 21.5 9.980469 21.5 9.867188 21.5 9.757812 Z M 12.238281 10.421875 L 10.253906 11.414062 L 10.304688 11.71875 L 11.839844 10.949219 Z M 12.238281 10.421875 "/>
<path style=" stroke:none;fill-rule:nonzero;fill:rgb(0%,0%,0%);fill-opacity:0.235294;" d="M 21.5 10.339844 L 21.492188 10.339844 C 21.40625 13.546875 20.6875 17.542969 18.523438 21.253906 L 17.199219 21.253906 L 15.214844 12.324219 L 13.230469 21.253906 L 11.90625 21.253906 L 10.355469 11.941406 L 10.253906 11.992188 L 11.90625 21.914062 L 13.230469 21.914062 L 15.214844 12.984375 L 17.199219 21.914062 L 18.523438 21.914062 C 20.839844 17.945312 21.5 13.644531 21.5 10.339844 Z M 12.238281 11 L 11.445312 11.398438 L 11.246094 11.660156 L 11.355469 12.179688 Z M 12.238281 11 "/>
<path style="fill:none;stroke-width:3;stroke-linecap:round;stroke-linejoin:round;stroke:rgb(12.941177%,12.941177%,12.941177%);stroke-opacity:1;stroke-miterlimit:4;" d="M 164.046834 -33.704813 L 190.48181 125.030029 L 211.667287 125.030029 L 243.414255 -17.831329 L 275.161223 125.030029 L 296.3467 125.030029 C 333.405661 61.536092 343.967153 -7.269837 343.967153 -60.202282 L 312.220184 -54.89029 C 312.220184 -7.269837 311.53275 50.849613 291.034708 98.532559 L 259.287739 -49.578297 L 238.102262 -44.328798 L 206.355294 98.532559 L 179.920318 -28.455314 L 195.793803 -49.578297 Z M 164.046834 -33.704813 " transform="matrix(0.062506,0,0,0.062506,0,13.438783)"/>
</g>
</svg>
